!!!SOCIAL_FUNCTION:	songs of social dance
!!!PDT:	1939
!!!OTL: No_80_Song_After_Food_Was_Served.krn
!!!LANG: Non-Tone
!!!LING_GROUP: Wakashan
!!!REG: Pacific Northwest
**kern
*staff1
=1-
*clefF4
*k[b-e-a-]
*M2/4
4G\
8.B-\L
16B-\Jk
=2||
*M3/4
8.c-\L
16B-\Jk
8E-\
8r
4B-\
=3||
*M2/4
4.c\
8B-\
=4
4c\
4r
=5||
*M3/4
8c\L
16B-\L
16G\JJ
4B-\
8B-\
8r
=6||
*M2/4
4..B-\
16G\
=7||
*M3/4
4B-\
4G\
8r
16G\LL
16G\JJ
=8
8.B-\L
16B-\Jk
8G\L
8G\J
8G\
8r
=9||
*M2/4
8.B-\L
16c\Jk
8.B-\L
16G\Jk
=10||
*M3/4
8.B-\L
16B-\Jk
16G\LL
16B-\
16G\
16G\JJ
4r
=11||
*M2/4
8G\L
8G\J
4r
=12
4.B-\
8B-\
=13||
*M3/4
4B-\
16G\
16r
16E-\
16r
4G\
=14
8.B-\L
16B-\Jk
8G\L
8G\J
8G\
8r
=15||
*M2/4
8B-\
8r
12G\L
12E-\
12B-\J
=16
4B-\
12B-\L
12B-\
12G\J
=17
4r
4B-\
=18!|:
4.c\
8B-\
=19
4c\
8B-\
8r
=20||
*M3/4
8c\L
16B-\L
16G\JJ
4B-\
8B-\
8r
=21||
*M2/4
4..B-\
16G\
=22
4B-\
4G\
=23
8E-\
8r
4G\
=24||
*M3/4
8.B-\L
16B-\Jk
16G\LL
16G\J
8G\J
4r
=25||
*M2/4
8.B-\L
16c\Jk
16B-\LL
16G\JJ
16r
16B-\
=26
8.B-\L
16B-\Jk
8B-\L
8G\J
=27||
*M3/4
4B-\
8G\L
8E-\J
8r
8B-\
=28||
*M2/4
12G\L
12F\
12G\J
8E-\
32BB-/
32r
16B-\
=29
12G\L
12F\
12G\J
8E-\
32BB-/
32r
16B-\
=30
8B-\L
16G\L
16G\JJ
8E-\
32BB-/
32r
16B-\
=31||
=
*M3/4
12G\L
12F\
12G\J
8E-\
32BB-/
32r
16r
4B-\
=32:|!
*M2/4
12G\L
12F\
12G\J
8E-/L
16BB-/Jk
16r
==
*-
